X:350
T: Nell Sullivan's
S: "Johnny O'Leary of Sliabh Luachra" (#89)
Z: B.Black
L: 1/8
M: 6/8
R: jig
K: G
g|edB G2A|Bge dBd|edB AGA|BAG ABd|
edB G2A|B/c/ge dBd|edA AGA|BGG G2 :|
F|G/A/Bd e2e|edB dBA|dBA G2A|BAG ABA|
G/A/Bd e2g|edB dBA|G/A/BG AGA|BGG G2 :|
